X:5210
T:Polska i tre repriser efter John-Erik Mattson
O:england
R:Polska
A:S.J\"amtland
Q:150
M:3/4
L:1/8
K:D
D>F A>d f>a | (3agf e z E2 | \
A,>C E>A ce | (3gec d>A (3FAF | \
D>F A>d f>a | (3gbg e z E2 |
A,>C E>A ce | (3gec d4 :: \
D>(F A>)(d f)a | A>(c e>)(f g)b | \
(3a(fa) (3g(eg) (3f(df) | (3e(ce) d>A (3F(AF) |
D>(F A>)(d f)a | A>(c e>)(f g)b | \
(3a(fa) (3g(eg) (3f(df) | (3ece d4 :: \
K:A
{f}e2 (^de) fe | (ec') ae c2 |
{d}cB Bg Bg | {ga}ge ca ca | \
{f}e2 (^de) fe | (ec') ae c2 | \
{d}cB Bg Bg | (ga) a4 :|


